!!!COM: Anonymous
!!!CDT: [?]
!!!OTL@@POL: Zawitaj czasie 
!!!TXO: Polish
!!!ODT: 
!!!GTL: Hymnbook E
!!!ARL: Opactwo św. Wojciecha, Staniątki 
!!!voices:	3
**kern	**kern	**text	**kern	**text
*staff3	*staff2	*staff2	*staff1	*staff1
*I"Basso	*I"Canto II	*	*I"Canto I	*
=1-	=1-	=1-	=1-	=1-
*clefF4	*clefG2	*	*clefG2	*
*k[]	*k[]	*	*k[]	*
*M3/2	*M3/2	*	*M3/2	*
4c\	2g/	Za-	2cc\	Za-
4B\	.	.	.	.
2A\	4a/	-wi-	4cc\	-wi-
.	4b\	.	4dd\	.
2F\	4cc\	-taj	4ee\	-taj
.	4dd\	.	4ff\	.
=2	=2	=2	=2	=2
1G	1b	cza-	1dd	cza-
2G\	2b\	-sie	2dd\	-sie
=3	=3	=3	=3	=3
2.C/	2.cc\	daw-	2.ee\	daw-
4BB/	4g/	-no	4dd\	-no
2C/	4cc\	po-	4ee\	po-
.	4dd\	.	4ff\	.
=4	=4	=4	=4	=4
2E\	2ee\	-żą-	2gg\	-żą-
1F	2.dd\	-da-	2.ff\	-da-
.	4cc\	.	4ee\	.
=5	=5	=5	=5	=5
1.G	1.b	-ny	1.dd	-ny
=6	=6	=6	=6	=6
2C/	2cc\	Nam	2ee\	Nam
2F\	4dd\	z~na-	4ff\	z~na-
.	4cc\	.	4ee\	.
2F\	4b\	-ro-	4dd\	-ro-
.	4a/	.	4cc\	.
=7	=7	=7	=7	=7
1G	1b	-dze-	1dd	-dze-
2E\	2cc\	-nia	2ee\	-nia
=8	=8	=8	=8	=8
2.F\	2.a/	Pan-	2.cc\	Pan-
4F\	4b\	-ny	4dd\	-ny
2F#\	2a/	da-	2cc\	da-
=9	=9	=9	=9	=9
2G\	2g/	-ro-	2b\	-ro-
1D	2.g/	-wa-	1a	-wa-
.	4f#/	.	.	.
=10	=10	=10	=10	=10
1.GG	1.g	-ny	1.g	-ny
=11||	=11||	=11||	=11||	=11||
2C/	2e/	Wi-	2g/	Wi-
2c\	2f#/	-taj-	2a/	-taj-
2B\	2g/	-że	2b\	-że
=12	=12	=12	=12	=12
1A	1a	wi-	1cc	wi-
2G\	2b\	-taj	2dd\	-taj
=13	=13	=13	=13	=13
2.C/	2.cc\	szczę-	2.ee\	szczę-
4D\	4b\	-śli-	4dd\	-śli-
2E\	2a/	-wa	2cc\	-wa
=14	=14	=14	=14	=14
2F\	2dd\	go-	2ff\	go-
2.E\	1cc	-dzi-	1ee	-dzi-
4F\	.	.	.	.
=15	=15	=15	=15	=15
1.G	1.b	-no	1.dd	-no
=16	=16	=16	=16	=16
2.G\	2.b\	wdzię-	2.dd\	wdzię-
4E\	4cc\	.	4ee\	.
2F\	4a/	-czna	2ff\	-czna
.	4b\	.	.	.
=17	=17	=17	=17	=17
2C/	2cc\	no-	2ee\	no-
2G\	2.cc\	-wi-	1dd	-wi-
2GG/	.	.	.	.
.	4b\	.	.	.
=18	=18	=18	=18	=18
1.C	1.cc	-no.	1.cc	-no.
==	==	==	==	==
*-	*-	*-	*-	*-
!!!GTL: Hymnbook E
!!!EFL: 91/117
!!!YEM: Creative Commons CC/BY/NC/SA 4.0
!!!ENC: Marcin Konik
!!!END: 
!!!EED: Marcin Konik
!!!EEV: 
!!!ONB: Translated from MusicXML and edited by Marcin Konik
!!!CharacterEncoding: utf-8
!!!RDF**kern: l=long note in original notation
!!!RDF**kern: i=editorial accidental
!!muse2ps: z14jc180F
